X:163
T:Highlanders Quadrilles #1. Le4.163, The
Q:3/8=100
L:1/8
B:L.Leadley MS#4 c1850
Z:vmp.Mike Hicken 2016 www.village-music-project.org.uk
M:6/8
K:D
!p!A|d>ed f>gf|{f/}e>de d2d|{g/}f>ef dfa|b3 a2 b/c'/|d'>c'b a<d'f|{f/}e>de fdB|
A>BA Adf|e>de d2 !fermata!||!f!E|A>BA c>dc|{c/}B>AB|A2A|{d/}c>Bc Ace|f3 ef^g|a^gf e<ac|
{c}B>AB cAF|E>FE EAc|B>AB A2||!p!A|d>ed f>gf|{f/}e>de d2d|{g/}e>de dfa|
b3a2b/b/|d'>c'b a<d'f|{f/}e>de fdB|A>BA Adf|e>de d2||!f!f/f/|bff c'ff|d'ff c'ff|
b>^ab d'c'b|b^aa a2 !p!f/f/|gff ^eff|dff cff|dcB Bd^e|f3 f2"_D.C."|]

